X:1
T:Title
%%score { 1 | 2 }
L:1/8
M:6/8
K:Eb
V:1 treble nm="Grand Piano"
V:2 bass 
V:1
 z3 z2[Q:1/4=87] E | G_G=G [FA][EG][EFA] | [EGB]3 [EAc]3 | [EGB][B,EG][G,B,E] [G,CE][G,CD][G,CE] | %4
[M:5/8] [B,DF]-[B,DF]- [B,DF]3 |[M:1/8] [B,DF] |[M:3/4] [B,EG][=A,E_G] [B,E=G][B,FA] [B,EG][EFA] | %7
 [EGB]3 [EAc]3 |[M:13/16] [EGB][B,EG][G,E][A,DF]3/2[B,DG][A,DF] |[M:3/4] [G,E]6 | %10
 [DF][DF] [DF][DF] [CE][DF] | [EG]6 | [FA][FA] [FA][FA] [EG][EFA] | [EGB]4- [EGB][G,E]/[A,EF]/ | %14
 [B,EG][=A,E_G] [B,E=G][B,FA] [B,EG][EFA] |[M:7/8] [EGB]2 [EBe] [EAc]3 [EAc] | %16
[M:13/16] [EGB][B,EG][G,E][A,DF]3/2[B,DG][A,DF] |[M:5/8] [G,E]-[G,E]- [G,E]3 |] %18
V:2
 z3 z2 [E,G,] | [E,B,E][E,=A,E][E,B,E] [B,,B,][B,,B,]B,, | E,3 A,3 | E,E,E, C,C,C, | %4
[M:5/8] B,,-B,,- B,,3 |[M:1/8] B,, |[M:3/4] E,E, E,B,, B,,B,, | E,3 A,,3 | %8
[M:13/16] B,,B,,B,,B,,3/2B,,B,, |[M:3/4] E,6 | [B,,B,][B,,B,] [B,,B,][B,,B,] [B,,B,][B,,B,] | %11
 [E,B,]6 | [B,,B,][B,,B,] [B,,B,][B,,B,] [B,,B,]B,, | E,4- E,E,/E,/ | E,E, E,B,, B,,B,, | %15
[M:7/8] E,2 G, A,3 A,, |[M:13/16] B,,B,,B,,B,,3/2B,,B,, |[M:5/8] E,-E,- E,3 |] %18

